public/assets/icons/home/chat-bubble.svg

<svg xmlns="http://www.w3.org/2000/svg"
     viewBox="310 140 340 250" preserveAspectRatio="xMidYMid meet" version="1.0">
    <path fill="#225378"
          d="M 548.269531 218.871094 C 591.574219 228.726562 623.550781 261.234375 623.550781 300.253906 C 623.550781 310.285156 621.378906 320.085938 617.332031 329.003906 L 641.972656 364.03125 C 644.90625 368.257812 641.152344 373.890625 636.105469 372.773438 L 590.164062 362.507812 C 573.910156 375.53125 547.742188 384.742188 520.632812 384.742188 C 474.398438 384.742188 435.027344 359.75 422.121094 324.953125 C 426.519531 326.070312 430.980469 326.890625 435.496094 327.417969 C 448.992188 354.292969 481.910156 373.476562 520.632812 373.476562 C 545.21875 373.476562 568.277344 365.675781 585.351562 352.0625 C 586.644531 351.003906 588.402344 350.59375 590.046875 350.945312 L 624.3125 358.632812 L 606.300781 332.992188 C 605.066406 331.289062 604.890625 329.0625 605.832031 327.242188 C 610.054688 318.675781 612.285156 309.582031 612.285156 300.253906 C 612.285156 268.742188 587.113281 241.578125 551.730469 231.367188 C 550.96875 227.085938 549.796875 222.917969 548.269531 218.871094 Z M 548.269531 218.871094 "
          fill-opacity="1" fill-rule="nonzero"/>
    <path fill="#225378"
          d="M 344.84375 276.898438 C 340.679688 268.566406 337.804688 256.480469 337.804688 243.925781 C 337.804688 190.824219 388.675781 148.167969 450.988281 148.167969 C 513.242188 148.167969 564.113281 190.824219 564.113281 243.925781 C 564.113281 297.023438 513.242188 339.679688 450.988281 339.679688 C 422.121094 339.679688 394.894531 330.527344 374.183594 314.273438 L 323.195312 326.011719 C 318.207031 327.183594 314.390625 321.609375 317.265625 317.386719 Z M 450.988281 159.433594 C 394.484375 159.433594 349.070312 197.511719 349.070312 243.925781 C 349.070312 254.777344 351.535156 265.28125 356.285156 275.140625 C 357.167969 276.957031 356.988281 279.128906 355.816406 280.773438 L 334.8125 311.753906 L 374.300781 302.65625 C 376 302.304688 377.761719 302.714844 379.109375 303.832031 C 398.0625 319.4375 423.644531 328.414062 450.988281 328.414062 C 507.433594 328.414062 552.847656 290.335938 552.847656 243.925781 C 552.847656 197.511719 507.433594 159.433594 450.988281 159.433594 Z M 450.988281 159.433594 "
          fill-opacity="1" fill-rule="nonzero"/>
    <path fill="#225378"
          d="M 412.027344 243.925781 C 412.027344 250.144531 406.980469 255.191406 400.761719 255.191406 C 394.542969 255.191406 389.496094 250.144531 389.496094 243.925781 C 389.496094 237.703125 394.542969 232.660156 400.761719 232.660156 C 406.980469 232.660156 412.027344 237.703125 412.027344 243.925781 Z M 412.027344 243.925781 "
          fill-opacity="1" fill-rule="evenodd"/>
    <path fill="#225378"
          d="M 462.722656 243.925781 C 462.722656 250.144531 457.675781 255.191406 451.457031 255.191406 C 445.238281 255.191406 440.191406 250.144531 440.191406 243.925781 C 440.191406 237.703125 445.238281 232.660156 451.457031 232.660156 C 457.675781 232.660156 462.722656 237.703125 462.722656 243.925781 Z M 462.722656 243.925781 "
          fill-opacity="1" fill-rule="evenodd"/>
    <path fill="#225378"
          d="M 513.417969 243.925781 C 513.417969 250.144531 508.371094 255.191406 502.152344 255.191406 C 495.933594 255.191406 490.886719 250.144531 490.886719 243.925781 C 490.886719 237.703125 495.933594 232.660156 502.152344 232.660156 C 508.371094 232.660156 513.417969 237.703125 513.417969 243.925781 Z M 513.417969 243.925781 "
          fill-opacity="1" fill-rule="evenodd"/>
</svg>

<svg xmlns="http://www.w3.org/2000/svg" version="1.0" viewBox="310 140 340 250">
    <path fill="#225378" d="M548.27 218.87c43.3 9.86 75.28 42.36 75.28 81.38a69.6 69.6 0 0 1-6.22 28.75l24.64 35.03a5.65 5.65 0 0 1-5.86 8.74l-45.95-10.26c-16.25 13.02-42.42 22.23-69.53 22.23-46.23 0-85.6-24.99-98.5-59.79 4.39 1.12 8.85 1.94 13.37 2.47 13.5 26.87 46.41 46.06 85.13 46.06 24.59 0 47.65-7.8 64.72-21.42a5.62 5.62 0 0 1 4.7-1.11l34.26 7.68-18-25.64a5.5 5.5 0 0 1-.48-5.75 60.71 60.71 0 0 0 6.46-26.99c0-31.5-25.18-58.67-60.56-68.88a70.17 70.17 0 0 0-3.46-12.5Zm0 0"/>
    <path fill="#225378" d="M344.84 276.9c-4.16-8.33-7.04-20.42-7.04-32.97 0-53.1 50.88-95.76 113.19-95.76 62.25 0 113.12 42.65 113.12 95.76 0 53.1-50.87 95.75-113.12 95.75-28.87 0-56.1-9.15-76.8-25.4l-51 11.73a5.62 5.62 0 0 1-5.92-8.62ZM451 159.43c-56.5 0-101.92 38.08-101.92 84.5a71.43 71.43 0 0 0 7.22 31.21c.88 1.82.7 3.99-.47 5.63l-21 30.98 39.48-9.1a5.7 5.7 0 0 1 4.8 1.18c18.96 15.6 44.54 24.58 71.89 24.58 56.44 0 101.86-38.07 101.86-84.48 0-46.42-45.42-84.5-101.86-84.5Zm0 0"/>
    <path fill="#225378" fill-rule="evenodd" d="M412.03 243.93a11.27 11.27 0 1 1-22.54-.01 11.27 11.27 0 0 1 22.54 0ZM462.72 243.93a11.27 11.27 0 1 1-22.54-.01 11.27 11.27 0 0 1 22.54 0ZM513.42 243.93a11.27 11.27 0 1 1-22.54-.01 11.27 11.27 0 0 1 22.54 0Zm0 0"/>
</svg>
